client/public/game_modes/fireball/frame19.svg

<svg xmlns="http://www.w3.org/2000/svg" width="437" height="483" fill="none"><path fill="#FF5A00" d="M166.273 253.571v-21.142h105.454v21.142h21.091v42.286h21.091v35.238H335v70.476h-21.091v42.286h-42.182V465H166.273v-21.143h-42.182v-42.286H103v-63.428h21.091v-42.286h21.091v-42.286h21.091Z"/><path fill="#FF9D00" d="M166.273 317h-21.091v21.143h-21.091v42.286h21.091v42.285h42.182v-42.285h-21.091v-42.286h42.182v-42.286h84.363v-21.143h-21.091v-21.143h-63.272v21.143h-42.182V317Z"/><path fill="#FF9D00" d="M313.909 380.429V317h-42.182v21.143h21.091v21.143h-21.091v42.285h-42.182v42.286h21.091v-21.143h42.182v-42.285h21.091Z"/><path fill="#FFD600" d="M229.545 443.857h-42.181v-63.428h-21.091v-42.286h42.182v-42.286h84.363V317h-21.091v21.143h21.091v21.143h-21.091v42.285h-42.182v42.286Z"/><path fill="#FFF1CD" d="M229.545 380.429v-21.143h-21.09V317h42.181v42.286h21.091v21.143h-42.182Z"/><path fill="#FF7A00" d="M145.182 274.714h21.091V317h-21.091v21.143h-21.091V317h21.091v-42.286Zm-21.091 148v-42.285h21.091v42.285h-21.091Zm63.273-148v-21.143h21.091v21.143h-21.091Zm63.272 169.143v-21.143h42.182v-42.285h21.091v63.428h-63.273Z"/><path fill="#FFBF00" d="M208.455 317v42.286h-21.091v21.143h-21.091v-42.286h21.091V317h21.091Zm-21.091 126.857v-42.286h21.091v21.143h42.181v21.143h-63.272Zm105.454-137.428V317h-21.091v-21.143h21.091v10.572Zm-84.363-10.572v-21.143h21.09v21.143h-21.09Zm-42.182 105.714v-21.142h21.091v21.142h-21.091Zm-21.091-42.285v-21.143h21.091v21.143h-21.091Z"/><path fill="#FFBF00" d="M208.455 295.857v-21.143h21.09v21.143h-21.09Z"/></svg>

<svg width="437" height="483" viewBox="0 0 437 483" fill="none" xmlns="http://www.w3.org/2000/svg">
<path d="M166.273 253.571V232.429H271.727V253.571H292.818V295.857H313.909V331.095H335V401.571H313.909V443.857H271.727V465H187.364H166.273V443.857H124.091V401.571H103V338.143H124.091V295.857H145.182V253.571H166.273Z" fill="#FF5A00"/>
<path d="M166.273 317H145.182V338.143H124.091V380.429H145.182V401.571V422.714H187.364V380.429H166.273V359.286V338.143H187.364H208.455V317V295.857H292.818V274.714H271.727V253.571H250.636H229.545H208.455V274.714H187.364H166.273V317Z" fill="#FF9D00"/>
<path d="M313.909 380.429V317H292.818H271.727V338.143H292.818V359.286H271.727V401.571H229.545V422.714V443.857H250.636V422.714H292.818V401.571V380.429H313.909Z" fill="#FF9D00"/>
<path d="M229.545 443.857H187.364V380.429H166.273V338.143H208.455V295.857H271.727H292.818V317H271.727V338.143H292.818V359.286H271.727V401.571H229.545V443.857Z" fill="#FFD600"/>
<path d="M229.545 380.429V359.286H219H208.455V317H250.636V359.286H271.727V380.429H229.545Z" fill="#FFF1CD"/>
<path d="M145.182 274.714H166.273V317H145.182V338.143H124.091V317H145.182V274.714Z" fill="#FF7A00"/>
<path d="M124.091 422.714V380.429H145.182V422.714H124.091Z" fill="#FF7A00"/>
<path d="M187.364 274.714V253.571H197.909H208.455V274.714H187.364Z" fill="#FF7A00"/>
<path d="M250.636 443.857V422.714H292.818V380.429H313.909V443.857H250.636Z" fill="#FF7A00"/>
<path d="M208.455 317V359.286H187.364V380.429H166.273V338.143H187.364V317H208.455Z" fill="#FFBF00"/>
<path d="M187.364 443.857V401.571H208.455V422.714H250.636V443.857H229.545H208.455H187.364Z" fill="#FFBF00"/>
<path d="M292.818 306.429V317H271.727V295.857H292.818V306.429Z" fill="#FFBF00"/>
<path d="M208.455 295.857V274.714H229.545V295.857H208.455Z" fill="#FFBF00"/>
<path d="M166.273 401.571V380.429H187.364V401.571H166.273Z" fill="#FFBF00"/>
<path d="M145.182 359.286V338.143H166.273V359.286H145.182Z" fill="#FFBF00"/>
<path d="M208.455 295.857V274.714H229.545V295.857H208.455Z" fill="#FFBF00"/>
</svg>
